src/assets/filled/Clock1.svg

<?xml version="1.0" encoding="UTF-8"?>
<svg width="24" height="24" viewBox="0 0 24 24" xmlns="http://www.w3.org/2000/svg">
 <path d="m14.718 18.997c0.3978-0.1551 0.8573 0.1839 0.7721 0.6023-0.49 1.9-1.59 2.4-2.94 2.4h-1.09c-1.35 0-2.46-0.5-2.94-2.41-0.08225-0.419 0.37502-0.7553 0.77265-0.5995 0.85459 0.3348 1.7682 0.5095 2.7074 0.5095 0.9437 0 1.8618-0.1686 2.7179-0.5023z"/>
 <path d="M15.49 4.4C15.5784 4.82271 15.1124 5.1669 14.7106 5.00871C13.8728 4.67891 12.9588 4.5 12 4.5C11.0425 4.5 10.1302 4.68113 9.29169 5.01127C8.89381 5.16793 8.4347 4.82901 8.52005 4.41C9.00005 2.5 10.11 2 11.46 2H12.55C13.9 2 15 2.5 15.49 4.4Z"/>
 <path d="m12 5.5c-3.59 0-6.5 2.91-6.5 6.5 0 2.1 0.99 3.96 2.53 5.15h0.01c1.1 0.85 2.47 1.35 3.96 1.35 1.51 0 2.89-0.51 3.99-1.37h0.01c1.52-1.19 2.5-3.05 2.5-5.13 0-3.59-2.91-6.5-6.5-6.5zm1.93 8.88c-0.15 0.15-0.34 0.22-0.53 0.22s-0.38-0.07-0.53-0.22l-1.4-1.4c-0.14-0.14-0.22-0.33-0.22-0.53v-2.79c0-0.41 0.34-0.75 0.75-0.75s0.75 0.34 0.75 0.75v2.48l1.18 1.18c0.29 0.29 0.29 0.77 0 1.06z"/>
</svg>

<svg width="24" height="24" viewBox="0 0 24 24"  xmlns="http://www.w3.org/2000/svg">
<path d="M14.718 18.9972C15.1158 18.8421 15.5753 19.1811 15.4901 19.5995C15.0001 21.4995 13.9001 21.9995 12.5501 21.9995H11.4601C10.1101 21.9995 9.00006 21.4995 8.52006 19.5895C8.43781 19.1705 8.89508 18.8342 9.29271 18.99C10.1473 19.3248 11.0609 19.4995 12.0001 19.4995C12.9438 19.4995 13.8619 19.3309 14.718 18.9972Z" />
<path d="M15.49 4.4C15.5784 4.82271 15.1124 5.1669 14.7106 5.00871C13.8728 4.67891 12.9588 4.5 12 4.5C11.0425 4.5 10.1302 4.68113 9.29169 5.01127C8.89381 5.16793 8.4347 4.82901 8.52005 4.41C9.00005 2.5 10.11 2 11.46 2H12.55C13.9 2 15 2.5 15.49 4.4Z" />
<path d="M12 5.5C8.41 5.5 5.5 8.41 5.5 12C5.5 14.1 6.49 15.96 8.03 17.15H8.04C9.14 18 10.51 18.5 12 18.5C13.51 18.5 14.89 17.99 15.99 17.13H16C17.52 15.94 18.5 14.08 18.5 12C18.5 8.41 15.59 5.5 12 5.5ZM13.93 14.38C13.78 14.53 13.59 14.6 13.4 14.6C13.21 14.6 13.02 14.53 12.87 14.38L11.47 12.98C11.33 12.84 11.25 12.65 11.25 12.45V9.66C11.25 9.25 11.59 8.91 12 8.91C12.41 8.91 12.75 9.25 12.75 9.66V12.14L13.93 13.32C14.22 13.61 14.22 14.09 13.93 14.38Z" />
</svg>
